resources/haticons/SVG/timer.svg

<!-- Generated by IcoMoon.io -->
<svg version="1.1" xmlns="http://www.w3.org/2000/svg" width="24" height="24" viewBox="0 0 24 24">
<title>timer</title>
<path d="M12 20.016q2.906 0 4.945-2.063t2.039-4.969-2.039-4.945-4.945-2.039-4.945 2.039-2.039 4.945 2.039 4.969 4.945 2.063zM19.031 7.406q0.797 1.031 1.383 2.648t0.586 2.93q0 3.703-2.625 6.352t-6.375 2.648-6.375-2.648-2.625-6.352 2.625-6.352 6.375-2.648q1.266 0 2.93 0.609t2.695 1.406l1.406-1.453q0.75 0.609 1.406 1.406zM11.016 14.016v-6h1.969v6h-1.969zM15 0.984v2.016h-6v-2.016h6z"></path>
</svg>

<svg xmlns="http://www.w3.org/2000/svg" width="24" height="24"><path d="M12 20.016q2.906 0 4.945-2.063t2.039-4.969-2.039-4.945T12 6 7.055 8.039t-2.039 4.945 2.039 4.969T12 20.016zm7.031-12.61q.797 1.031 1.383 2.648t.586 2.93q0 3.703-2.625 6.352T12 21.984t-6.375-2.648T3 12.984t2.625-6.352T12 3.984q1.266 0 2.93.609t2.695 1.406l1.406-1.453q.75.609 1.406 1.406zm-8.015 6.61v-6h1.969v6h-1.969zM15 .984V3H9V.984h6z"/></svg>
